dist/img/svg/cup2_icon.svg

<svg xmlns="http://www.w3.org/2000/svg" viewBox="0 0 84.89 92.95"><path d="M63.92 31.87c0 12.33-9.63 22.36-21.48 22.36-11.84 0-21.47-10.03-21.47-22.36V17.85h27.97v-5.33H20.97V5.34h42.95zM28.96 80.43h26.97v7.16H28.96zm55.93-56.9V4.17H75.9v5.34h4v14.02c0 7.25-3.33 12.05-9.39 13.5l-2.11.5.27-2.14c.17-1.34.24-2.46.24-3.52V0H15.98v31.87c0 1.09.08 2.21.24 3.52l.26 2.15-2.1-.5c-6.06-1.46-9.4-6.25-9.4-13.51V9.52h4V4.17H0v19.36c0 11.32 6.6 18.69 17.24 19.24l.91.05.38.83c3.82 8.45 11.35 14.28 20.14 15.6l1.28.19v15.64H23.97v12.51h-4v5.36h44.94v-5.36h-3.99V75.08H44.94V59.44l1.28-.19c8.79-1.32 16.32-7.15 20.14-15.6l.38-.83.91-.05c10.64-.55 17.24-7.92 17.24-19.24"/></svg>

<svg xmlns="http://www.w3.org/2000/svg" viewBox="0 0 84.89 92.95">
	<style type="text/css">
		.st0{fill:#000000;}
	</style>
	<path class="st0" d="M63.92,31.87C63.92,44.2 54.29,54.23 42.44,54.23C30.6,54.23 20.97,44.2 20.97,31.87L20.97,17.85L48.94,17.85L48.94,12.52L20.97,12.52L20.97,5.34L63.92,5.34ZM28.96 80.43L55.93 80.43L55.93 87.59L28.96 87.59ZM55.93,80.43M84.89,23.53L84.89,4.17L75.9,4.17L75.9,9.51L79.9,9.51L79.9,23.53C79.9,30.78 76.57,35.58 70.51,37.03L68.4,37.53L68.67,35.39C68.84,34.05 68.91,32.93 68.91,31.87L68.91,0L15.98,0L15.98,31.87C15.98,32.96 16.06,34.08 16.22,35.39L16.48,37.54L14.38,37.04C8.32,35.58 4.98,30.79 4.98,23.53L4.98,9.52L8.98,9.52L8.98,4.17L0,4.17L0,23.53C0,34.85 6.6,42.22 17.24,42.77L18.15,42.82L18.53,43.65C22.35,52.1 29.88,57.93 38.67,59.25L39.95,59.44L39.95,75.08L23.97,75.08L23.97,87.59L19.97,87.59L19.97,92.95L64.91,92.95L64.91,87.59L60.92,87.59L60.92,75.08L44.94,75.08L44.94,59.44L46.22,59.25C55.01,57.93 62.54,52.1 66.36,43.65L66.74,42.82L67.65,42.77C78.29,42.22 84.89,34.85 84.89,23.53"/>
</svg>
